X: 7
T:Pasodoble Noso
M:2/4
L:1/16
C:Trad.
R:Pasodoble
A:Galicia
K:D
D2F2A2| D6 A2| d2c2B2A2 | D6 A2 | d2c2B2A2 | c6 d2 | c2B2A2G2 | A4{d}
ABAG
| F2 D2F2A2 | D6 A2 | d2c2B2A2 |D6 A2| d2c2B2A2 | c6 d2 | c2B2A2G2 | F8-
| F2 
:| 
|: F2{G}F2G2 
| A4{d} ABAG | F2{d} F2G2A2 | B4{d}
BcBA | G2{d} G2A2B2 | c6 d2| c2
B2A2G2 
| A4{d} ABAG | F2{d} F2{G}F2G2 | A4{d} ABAG | F2{d} F2G2
A2 | B4{d} BcBA | G2{d} G2A2B2
| c6 d2| c2A2B2c2 | d8- | d2 
:|

